X:352
T:Eibhlin
T:Eibhln Gheal Chin N Chearbhaill
D:Chieftains (3?)
Z:Nigel Gatherer
L:1/8
M:3/4
K:G
D3 E G2|A3 G A2|B3 A G2|A3 G A2|B3 A G2|G E3 D2|D6|D6:|
A3 B c2|d3 e d2|d3 c B2|A3 G E2|A3 B c2|d3 e d2|c6|B3 A G2|
A3 B c2|d3 e d2|d3 c B2|A3 G A2|B3 A G2|G E3 D2|D6|D6|]
<end>
<start>
